src/assets/svg/brasil-flag.svg

<svg width="63" height="63" viewBox="0 0 63 63" fill="none" xmlns="http://www.w3.org/2000/svg">
<g clip-path="url(#clip0)">
<path d="M61.3786 51.6874H1.07687C0.4822 51.6874 0 51.2052 0 50.6105V11.8451C0 11.2504 0.4822 10.7682 1.07687 10.7682H61.3787C61.9734 10.7682 62.4556 11.2504 62.4556 11.8451V50.6105C62.4555 51.2053 61.9733 51.6874 61.3786 51.6874Z" fill="#73AF00"/>
<path d="M30.6678 16.4932L7.97207 30.308C7.28275 30.7275 7.28275 31.728 7.97207 32.1476L30.6678 45.9624C31.0117 46.1718 31.4436 46.1718 31.7876 45.9624L54.4835 32.1477C55.1728 31.7282 55.1728 30.7277 54.4835 30.3081L31.7876 16.4932C31.4437 16.2839 31.0117 16.2839 30.6678 16.4932Z" fill="#FFE15A"/>
<path d="M31.2277 39.8423C35.9854 39.8423 39.8422 35.9855 39.8422 31.2279C39.8422 26.4702 35.9854 22.6134 31.2277 22.6134C26.4701 22.6134 22.6133 26.4702 22.6133 31.2279C22.6133 35.9855 26.4701 39.8423 31.2277 39.8423Z" fill="#41479B"/>
<path d="M23.8356 26.821C23.4292 27.5014 23.1153 28.2409 22.908 29.0261C27.6835 28.6667 34.7479 30.0027 39.2442 34.3656C39.5377 33.6165 39.7314 32.8185 39.8041 31.9843C35.1613 28.0768 28.7427 26.6873 23.8356 26.821Z" fill="#F5F5F5"/>
<path d="M31.5845 34.1676L31.8139 34.8553L32.5388 34.8609C32.6326 34.8616 32.6715 34.9814 32.5961 35.0372L32.0129 35.4679L32.2316 36.159C32.2599 36.2486 32.158 36.3226 32.0817 36.268L31.4919 35.8464L30.9021 36.268C30.8258 36.3226 30.7239 36.2486 30.7522 36.159L30.9709 35.4679L30.3877 35.0372C30.3122 34.9814 30.3511 34.8616 30.445 34.8609L31.1699 34.8553L31.3992 34.1676C31.4289 34.0785 31.5548 34.0785 31.5845 34.1676Z" fill="#F5F5F5"/>
<path d="M34.4021 35.9467L34.5008 36.2426L34.8128 36.245C34.8532 36.2453 34.87 36.2969 34.8375 36.3209L34.5864 36.5062L34.6805 36.8037C34.6927 36.8423 34.6489 36.8741 34.616 36.8506L34.3621 36.6692L34.1083 36.8506C34.0755 36.8741 34.0315 36.8423 34.0437 36.8037L34.1378 36.5062L33.8868 36.3209C33.8543 36.297 33.871 36.2454 33.9114 36.245L34.2234 36.2426L34.3221 35.9467C34.335 35.9082 34.3893 35.9082 34.4021 35.9467Z" fill="#F5F5F5"/>
<path d="M30.3662 32.8611L30.4649 33.1571L30.777 33.1595C30.8173 33.1597 30.8342 33.2113 30.8016 33.2354L30.5506 33.4207L30.6446 33.7182C30.6568 33.7567 30.613 33.7886 30.5801 33.765L30.3262 33.5836L30.0724 33.765C30.0396 33.7886 29.9957 33.7567 30.0079 33.7182L30.1019 33.4207L29.8509 33.2354C29.8184 33.2115 29.8351 33.1599 29.8755 33.1595L30.1875 33.1571L30.2862 32.8611C30.2992 32.8228 30.3534 32.8228 30.3662 32.8611Z" fill="#F5F5F5"/>
<path d="M24.9004 32.5022L24.9991 32.7982L25.3111 32.8006C25.3515 32.8009 25.3684 32.8525 25.3358 32.8765L25.0847 33.0618L25.1788 33.3593C25.191 33.3978 25.1472 33.4297 25.1143 33.4061L24.8604 33.2247L24.6066 33.4061C24.5738 33.4297 24.5298 33.3978 24.542 33.3593L24.6361 33.0618L24.385 32.8765C24.3526 32.8526 24.3693 32.801 24.4097 32.8006L24.7217 32.7982L24.8204 32.5022C24.8335 32.4639 24.8876 32.4639 24.9004 32.5022Z" fill="#F5F5F5"/>
<path d="M29.4729 35.8444L29.5716 36.1404L29.8837 36.1428C29.924 36.143 29.9409 36.1946 29.9083 36.2187L29.6572 36.404L29.7513 36.7015C29.7635 36.74 29.7197 36.7719 29.6868 36.7483L29.4329 36.5669L29.1791 36.7483C29.1463 36.7719 29.1023 36.74 29.1145 36.7015L29.2086 36.404L28.9576 36.2187C28.9251 36.1948 28.9418 36.1432 28.9822 36.1428L29.2942 36.1404L29.3929 35.8444C29.406 35.8063 29.4602 35.8063 29.4729 35.8444Z" fill="#F5F5F5"/>
<path d="M26.957 32.2957L27.0378 32.5377L27.293 32.5398C27.3259 32.54 27.3397 32.5822 27.3132 32.6018L27.1079 32.7533L27.1849 32.9966C27.1949 33.0281 27.1591 33.0542 27.1321 33.0349L26.9245 32.8866L26.7169 33.0349C26.6899 33.0542 26.6542 33.0281 26.664 32.9966L26.741 32.7533L26.5357 32.6018C26.5092 32.5822 26.5228 32.54 26.556 32.5398L26.8112 32.5377L26.8919 32.2957C26.9023 32.2643 26.9466 32.2643 26.957 32.2957Z" fill="#F5F5F5"/>
<path d="M34.6212 27.2991L34.7222 27.6019L35.0413 27.6043C35.0827 27.6046 35.0997 27.6574 35.0664 27.6819L34.8098 27.8715L34.906 28.1758C34.9186 28.2152 34.8736 28.2478 34.84 28.2237L34.5803 28.0381L34.3206 28.2237C34.287 28.2479 34.2422 28.2151 34.2546 28.1758L34.3509 27.8715L34.0942 27.6819C34.0609 27.6574 34.0781 27.6047 34.1194 27.6043L34.4385 27.6019L34.5395 27.2991C34.5526 27.2598 34.6081 27.2598 34.6212 27.2991Z" fill="#F5F5F5"/>
<path d="M25.252 30.8151L25.3327 31.0571L25.5879 31.0592C25.6208 31.0594 25.6346 31.1016 25.6082 31.1213L25.4029 31.2728L25.4798 31.516C25.4898 31.5475 25.454 31.5736 25.427 31.5543L25.2194 31.406L25.0118 31.5543C24.9848 31.5736 24.9491 31.5475 24.959 31.516L25.0359 31.2728L24.8306 31.1213C24.8042 31.1016 24.8177 31.0595 24.8509 31.0592L25.1061 31.0571L25.1868 30.8151C25.1972 30.7837 25.2415 30.7837 25.252 30.8151Z" fill="#F5F5F5"/>
<path d="M26.4839 34.2262L26.6061 34.5929L26.9926 34.5958C27.0426 34.5962 27.0633 34.66 27.0231 34.6898L26.7122 34.9193L26.8288 35.2877C26.8439 35.3354 26.7896 35.375 26.7489 35.3458L26.4344 35.1211L26.1199 35.3458C26.0793 35.3748 26.0249 35.3354 26.04 35.2877L26.1566 34.9193L25.8457 34.6898C25.8055 34.66 25.8262 34.5962 25.8762 34.5958L26.2626 34.5929L26.3849 34.2262C26.4011 34.1789 26.4682 34.1789 26.4839 34.2262Z" fill="#F5F5F5"/>
<path d="M35.9732 36.0235L36.0501 36.2542L36.2932 36.256C36.3247 36.2563 36.3377 36.2964 36.3125 36.315L36.1169 36.4595L36.1902 36.6912C36.1997 36.7213 36.1656 36.746 36.1399 36.7277L35.9421 36.5863L35.7443 36.7277C35.7186 36.746 35.6845 36.7213 35.6939 36.6912L35.7672 36.4595L35.5717 36.315C35.5464 36.2964 35.5595 36.2563 35.5909 36.256L35.834 36.2542L35.9109 36.0235C35.921 35.9936 35.9633 35.9936 35.9732 36.0235Z" fill="#F5F5F5"/>
<path d="M36.824 34.2633L36.9227 34.5592L37.2347 34.5616C37.2751 34.5619 37.2919 34.6135 37.2594 34.6375L37.0083 34.8228L37.1024 35.1203C37.1146 35.1589 37.0708 35.1907 37.0378 35.1672L36.784 34.9858L36.5301 35.1672C36.4973 35.1907 36.4534 35.1589 36.4656 35.1203L36.5597 34.8228L36.3086 34.6375C36.2762 34.6136 36.2929 34.562 36.3333 34.5616L36.6453 34.5592L36.744 34.2633C36.7569 34.2248 36.8112 34.2248 36.824 34.2633Z" fill="#F5F5F5"/>
</g>
<defs>
<clipPath id="clip0">
<rect width="62.4556" height="62.4556" fill="white"/>
</clipPath>
</defs>
</svg>

<svg xmlns="http://www.w3.org/2000/svg" xmlns:xlink="http://www.w3.org/1999/xlink" width="63" height="63" fill="none"><g clip-path="url(#A)"><path d="M61.38 51.687H1.077C.482 51.687 0 51.205 0 50.61V11.845c0-.595.482-1.077 1.077-1.077H61.38c.595 0 1.077.482 1.077 1.077V50.61c0 .595-.482 1.077-1.077 1.077z" fill="#73af00"/><path d="M30.668 16.493L7.972 30.308a1.08 1.08 0 0 0 0 1.84l22.696 13.815c.344.21.776.21 1.12 0l22.696-13.815a1.08 1.08 0 0 0 0-1.84L31.788 16.493c-.344-.21-.776-.21-1.12 0z" fill="#ffe15a"/><path d="M31.228 39.842c4.758 0 8.615-3.857 8.615-8.614s-3.857-8.615-8.614-8.615-8.614 3.857-8.614 8.615 3.857 8.614 8.614 8.614z" fill="#41479b"/><g fill="#f5f5f5"><path d="M23.836 26.82a8.55 8.55 0 0 0-.928 2.205c4.775-.36 11.84.977 16.336 5.34a8.55 8.55 0 0 0 .56-2.381c-4.643-3.908-11.06-5.297-15.968-5.163zm7.75 7.348l.23.688.725.006c.094.001.133.12.057.176l-.583.43.22.7c.028.1-.074.164-.15.1l-.6-.422-.6.422c-.076.055-.178-.02-.15-.1l.22-.7-.583-.43c-.075-.056-.037-.176.057-.176l.725-.006.23-.688c.03-.1.156-.1.185 0zm2.817 1.78l.1.296.312.002c.04 0 .057.052.025.076l-.25.185.094.297c.012.04-.032.07-.065.047l-.254-.18-.254.18c-.033.023-.077-.008-.065-.047l.094-.297-.25-.185c-.032-.024-.016-.076.025-.076l.312-.002.1-.296c.013-.038.067-.038.08 0zm-4.036-3.087l.1.296.312.002c.04 0 .057.052.025.076l-.25.185.094.298c.012.038-.032.07-.064.047l-.254-.18-.254.18c-.033.024-.077-.008-.064-.047l.094-.298-.25-.185c-.032-.024-.016-.075.025-.076l.312-.002.1-.296c.013-.038.067-.038.08 0z"/><use xlink:href="#B"/><path d="M29.473 35.844l.1.296.312.002c.04 0 .057.052.025.076l-.25.185.094.297c.012.038-.032.07-.064.047l-.254-.18-.254.18c-.033.024-.077-.008-.065-.047l.094-.297-.25-.185c-.032-.024-.016-.075.025-.076l.312-.002.1-.296c.013-.038.067-.038.08 0zm-2.516-3.548l.08.242.255.002c.033 0 .047.042.02.062l-.205.152.077.243c.01.032-.026.058-.053.038l-.208-.148-.208.148c-.027.02-.063-.007-.053-.038l.077-.243-.205-.152c-.026-.02-.013-.062.02-.062l.255-.002.08-.242c.01-.03.055-.03.065 0zM34.62 27.3l.1.303.32.002c.04 0 .058.053.025.078l-.257.2.096.304c.013.04-.032.072-.066.048l-.26-.186-.26.186c-.034.024-.078-.01-.066-.048l.096-.304-.257-.2c-.033-.024-.016-.077.025-.078l.32-.002.1-.303c.013-.04.07-.04.082 0zm-9.368 3.515l.08.242.255.002c.033 0 .047.042.02.062l-.205.15.077.243c.01.032-.026.058-.053.038l-.208-.148-.208.148c-.027.02-.063-.007-.053-.038l.077-.243-.205-.15c-.026-.02-.013-.062.02-.062l.255-.002.08-.242c.01-.03.055-.03.065 0zm1.232 3.41l.122.367.386.003c.05 0 .07.064.03.094l-.3.23.117.368c.015.048-.04.087-.08.058l-.314-.225-.314.225c-.04.03-.095-.01-.08-.058l.117-.368-.3-.23c-.04-.03-.02-.094.03-.094l.386-.003.122-.367c.016-.047.083-.047.1 0zm9.49 1.798l.077.23.243.002c.032 0 .044.04.02.06l-.196.145.073.232c.01.03-.025.055-.05.036l-.198-.14-.198.14c-.026.018-.06-.006-.05-.036l.073-.232-.196-.145c-.025-.02-.012-.06.02-.06l.243-.002.077-.23c.01-.03.052-.03.062 0zm.85-1.76l.1.296h.312c.04 0 .057.052.025.076l-.25.185.094.297c.012.04-.032.07-.065.047l-.254-.18-.254.18c-.033.023-.077-.008-.064-.047l.094-.297-.25-.185c-.032-.024-.016-.076.025-.076h.312l.1-.296c.013-.038.067-.038.08 0z"/></g></g><defs><clipPath id="A"><path fill="#fff" d="M0 0h62.456v62.456H0z"/></clipPath><path id="B" d="M24.9 32.502l.1.296.312.002c.04 0 .057.052.025.076l-.25.185.094.297c.012.038-.032.07-.064.047l-.254-.18-.254.18c-.033.024-.077-.008-.065-.047l.094-.297-.25-.185c-.032-.024-.016-.075.025-.076l.312-.002.1-.296c.013-.038.067-.038.08 0z"/></defs></svg>
